src/images/icon-mac-os-x.svg

<?xml version="1.0" encoding="UTF-8" standalone="no"?>
<svg width="265px" height="265px" viewBox="0 0 265 265" version="1.1" xmlns="http://www.w3.org/2000/svg" xmlns:xlink="http://www.w3.org/1999/xlink" xmlns:sketch="http://www.bohemiancoding.com/sketch/ns">
    <!-- Generator: Sketch 3.3.2 (12043) - http://www.bohemiancoding.com/sketch -->
    <title>Artboard 1</title>
    <desc>Created with Sketch.</desc>
    <defs></defs>
    <g id="Page-1" stroke="none" stroke-width="1" fill="none" fill-rule="evenodd" sketch:type="MSPage">
        <g id="Artboard-1" sketch:type="MSArtboardGroup" fill="#FFFFFF">
            <path d="M132.5,265 C205.677729,265 265,205.677729 265,132.5 C265,59.3222707 205.677729,0 132.5,0 C59.3222707,0 0,59.3222707 0,132.5 C0,205.677729 59.3222707,265 132.5,265 Z M120.188458,130.37732 L67.546,208.279667 L90.0464052,208.279667 L132.075464,145.660614 L172.830915,208.279667 L197.454,208.279667 L144.174739,130.37732 L194.26998,56.7203333 L171.769575,56.7203333 L132.287732,115.943098 L94.5040327,56.7203333 L70.3054837,56.7203333 L120.188458,130.37732 Z" id="Oval-1" sketch:type="MSShapeGroup"></path>
        </g>
    </g>
</svg>

<svg width="265" height="265" viewBox="0 0 265 265" xmlns="http://www.w3.org/2000/svg"><title>Artboard 1</title><path d="M132.5 265c73.178 0 132.5-59.322 132.5-132.5S205.678 0 132.5 0 0 59.322 0 132.5 59.322 265 132.5 265zm-12.312-134.623L67.546 208.28h22.5l42.03-62.62 40.755 62.62h24.623l-53.28-77.903L194.27 56.72h-22.5l-39.482 59.223L94.504 56.72H70.305l49.883 73.657z" fill="#FFF" fill-rule="evenodd"/></svg>
